img/riabit-logo.svg

<svg xmlns="http://www.w3.org/2000/svg" preserveAspectRatio="xMidYMid" width="199.975" height="57.055" viewBox="0 0 354 101"><path d="M352.243 7.274l-22.875 21.124v68.624c0 2.125-1.625 3.75-3.75 3.75-2 0-3.75-1.625-3.75-3.75V28.273L300.869 7.149c-.125 0-.125 0-.125-.125h-.125v-.125s-.125 0-.125-.125c0 0 0-.125-.125-.125v-.125h-.125v-.25c-.125 0-.125 0-.125-.125v-.125h-.125v-.25l-.125-.125v-.125-.25l-.125-.125v-.375-.375-.25-.125c0-.125 0-.125.125-.125v-.125-.125-.125-.125h.125v-.25c0-.125 0-.125.125-.125v-.125c0-.125 0-.125.125-.125v-.125c0-.125 0-.125.125-.125v-.125c.125 0 .125-.125.125-.125 0-.125.125-.125.125-.125v-.125h.125s0-.125.125-.125c0-.125.125-.125.125-.125v-.125h.125s0-.125.125-.125c0 0 .125 0 .125-.125h.125s0-.125.125-.125h.125c0-.125 0-.125.125-.125h.125s0-.125.125-.125h.25V.899h.499c0-.125 0-.125.125-.125h46.75c1.5 0 2.875 1 3.5 2.375.5 1.5.125 3.125-1 4.125zm-39.75 1l13.25 13.249 14.375-13.249h-27.625zm-27.123 92.498c-2.125 0-3.75-1.625-3.75-3.75V4.524c0-2.125 1.625-3.75 3.75-3.75s3.75 1.625 3.75 3.75v92.498c0 2.125-1.625 3.75-3.75 3.75zm-21-17.125c-4.124 6.125-10.124 11.125-17.124 14.125-4.625 1.875-9.75 3-15.125 3-4 0-7.875-.625-11.5-1.75a36.873 36.873 0 0 1-10.25-4.875c-6.124-4.25-11.124-10.125-14.124-17.125-1.875-4.625-3-9.75-3-15.124v-34.25c0-2.75.375-5.5 1.25-8 .75-2.5 1.875-4.875 3.375-6.999 2.875-4.25 7-7.75 11.749-9.75a26.705 26.705 0 0 1 10.5-2.125c2.75 0 5.5.375 8 1.25 2.5.75 4.875 1.875 7 3.375 4.25 2.875 7.75 7 9.75 11.749 1.125 2.75 1.875 5.625 2 8.75 4.875 2 9.125 4.875 12.75 8.5 4.249 4.125 7.499 9.375 9.499 15.125 1.25 3.875 1.875 8 1.875 12.375 0 4-.5 7.874-1.75 11.499a36.873 36.873 0 0 1-4.875 10.25zm-24.874-55.999c0-2-.25-3.875-.875-5.75a23.962 23.962 0 0 0-2.375-5.125c-2.125-3-5.125-5.499-8.625-6.999-2.25-1-4.875-1.5-7.5-1.5-2 0-4 .375-5.75.875-1.875.625-3.5 1.375-5.125 2.5-2.999 1.999-5.499 4.999-6.999 8.499-1 2.25-1.5 4.875-1.5 7.5v19.375h19.374c2 0 4-.25 5.75-.875 1.875-.5 3.5-1.375 5.125-2.375 3-2.125 5.5-5.125 7-8.625.875-2 1.375-4.375 1.5-6.75v-.75zm20.5 19.75c-2.25-4.25-5.375-8-9.375-10.875-1.375-1-2.75-1.875-4.375-2.75-.125.625-.25 1.25-.5 1.875-.75 2.5-1.875 4.875-3.375 7-2.875 4.375-7 7.75-11.75 9.75a26.705 26.705 0 0 1-10.5 2.125h-19.374v7.375c0 3.25.5 6.374 1.375 9.249 1 3 2.25 5.75 4 8.25 3.374 5 8.124 9 13.749 11.375 3.75 1.625 7.875 2.5 12.25 2.5 3.25 0 6.375-.5 9.375-1.375 3-1 5.75-2.25 8.25-4 5-3.375 9-8.125 11.374-13.75a32.891 32.891 0 0 0 2.375-12.249c0-5.25-1.25-10.125-3.499-14.5zm-84.499 51.249l-21.25-42.374-65.749 43.874c-1.5 1-3.375.875-4.625-.25-1.249-1.125-1.624-3-.874-4.5l46.249-92.498c.625-1.375 2-2.125 3.375-2.125s2.75.75 3.375 2.125l46.249 92.498c.875 1.75.125 4-1.75 5-1.75.875-4 .125-5-1.75zm-42.874-85.748L95.998 86.022l54.874-36.499-18.249-36.624zm-64.498 87.873c-2.125 0-3.75-1.625-3.75-3.75V4.524c0-2.125 1.625-3.75 3.75-3.75s3.75 1.625 3.75 3.75v92.498c0 2.125-1.625 3.75-3.75 3.75zM49.124 42.648c-2.875 4.375-7 7.75-11.75 9.75a26.705 26.705 0 0 1-10.5 2.125h-.75l27 40.374c1.125 1.75.625 4.125-1 5.25-1.75 1.125-4.125.625-5.25-1L17.125 54.523H7.5v42.499c0 2.125-1.625 3.75-3.75 3.75S0 99.147 0 97.022V50.773c0-1 .375-2 1.125-2.625.625-.75 1.625-1.125 2.625-1.125h8.375l-11.5-17.25C.25 29.148 0 28.398 0 27.648c0-2.75.375-5.5 1.25-8 .75-2.5 1.875-4.875 3.375-6.999 2.875-4.25 7-7.75 11.75-9.75A26.704 26.704 0 0 1 26.874.774c2.75 0 5.5.375 8 1.25 2.5.75 4.875 1.875 7 3.375 4.375 2.875 7.75 7 9.75 11.749a26.705 26.705 0 0 1 2.125 10.5c0 2.75-.375 5.5-1.25 8-.75 2.5-1.875 4.875-3.375 7zm-3.75-20.75c-.5-1.875-1.375-3.5-2.375-5.125-2.125-3-5.125-5.499-8.625-6.999-2.25-1-4.75-1.5-7.5-1.5-1.999 0-3.999.25-5.749.875-1.875.625-3.5 1.375-5.125 2.5-3 1.999-5.5 4.999-7 8.499-.875 2-1.375 4.125-1.5 6.375l13.625 20.5h5.749c2 0 4-.25 5.75-.875 1.875-.5 3.5-1.375 5.125-2.375 3-2.125 5.5-5.125 7-8.625 1-2.25 1.5-4.75 1.5-7.5 0-2-.25-4-.875-5.75z" fill="#fff" fill-rule="evenodd"/></svg>

<svg xmlns="http://www.w3.org/2000/svg" xmlns:xlink="http://www.w3.org/1999/xlink" preserveAspectRatio="xMidYMid" width="199.975" height="57.055" viewBox="0 0 354 101" id="riabit-logo">
  <defs>
    <style>
      .cls-1 {
        fill: #fff;
        fill-rule: evenodd;
      }
    </style>
  </defs>
  <path d="M352.243,7.274 L329.368,28.398 L329.368,97.022 C329.368,99.147 327.743,100.772 325.618,100.772 C323.618,100.772 321.868,99.147 321.868,97.022 L321.868,28.273 L300.869,7.149 C300.744,7.149 300.744,7.149 300.744,7.024 L300.619,7.024 C300.619,6.899 300.619,6.899 300.619,6.899 C300.619,6.899 300.494,6.899 300.494,6.774 C300.494,6.774 300.494,6.649 300.369,6.649 C300.369,6.524 300.369,6.524 300.369,6.524 C300.244,6.524 300.244,6.524 300.244,6.524 C300.244,6.399 300.244,6.399 300.244,6.399 L300.244,6.274 C300.119,6.274 300.119,6.274 300.119,6.149 L300.119,6.024 C299.994,6.024 299.994,6.024 299.994,6.024 C299.994,5.899 299.994,5.899 299.994,5.899 L299.994,5.774 C299.869,5.649 299.869,5.649 299.869,5.649 L299.869,5.524 C299.869,5.524 299.869,5.524 299.869,5.399 L299.869,5.274 C299.869,5.274 299.869,5.274 299.744,5.149 C299.744,5.149 299.744,5.149 299.744,5.024 L299.744,4.899 L299.744,4.774 C299.744,4.649 299.744,4.649 299.744,4.524 L299.744,4.399 C299.744,4.274 299.744,4.274 299.744,4.274 L299.744,4.149 C299.744,4.149 299.744,4.149 299.744,4.024 C299.744,3.899 299.744,3.899 299.869,3.899 L299.869,3.774 C299.869,3.774 299.869,3.774 299.869,3.649 C299.869,3.524 299.869,3.524 299.869,3.524 C299.869,3.524 299.869,3.524 299.869,3.399 C299.869,3.399 299.869,3.399 299.994,3.399 C299.994,3.274 299.994,3.274 299.994,3.274 L299.994,3.149 C299.994,3.024 299.994,3.024 300.119,3.024 L300.119,2.899 C300.119,2.774 300.119,2.774 300.244,2.774 C300.244,2.774 300.244,2.774 300.244,2.649 C300.244,2.524 300.244,2.524 300.369,2.524 C300.369,2.524 300.369,2.524 300.369,2.399 C300.494,2.399 300.494,2.274 300.494,2.274 C300.494,2.149 300.619,2.149 300.619,2.149 C300.619,2.149 300.619,2.149 300.619,2.024 L300.744,2.024 C300.744,2.024 300.744,1.899 300.869,1.899 C300.869,1.774 300.994,1.774 300.994,1.774 C300.994,1.774 300.994,1.774 300.994,1.649 C301.119,1.649 301.119,1.649 301.119,1.649 C301.119,1.649 301.119,1.524 301.244,1.524 C301.244,1.524 301.369,1.524 301.369,1.399 C301.494,1.399 301.494,1.399 301.494,1.399 C301.494,1.399 301.494,1.274 301.619,1.274 C301.744,1.274 301.744,1.274 301.744,1.274 C301.744,1.149 301.744,1.149 301.869,1.149 L301.994,1.149 C301.994,1.149 301.994,1.024 302.119,1.024 L302.244,1.024 C302.244,1.024 302.244,1.024 302.369,1.024 L302.369,0.899 C302.493,0.899 302.493,0.899 302.493,0.899 C302.493,0.899 302.493,0.899 302.618,0.899 C302.743,0.899 302.743,0.899 302.743,0.899 L302.868,0.899 C302.868,0.774 302.868,0.774 302.993,0.774 L303.118,0.774 L303.243,0.774 C303.243,0.774 303.243,0.774 303.368,0.774 C303.368,0.774 303.368,0.774 303.493,0.774 L349.743,0.774 C351.243,0.774 352.618,1.774 353.243,3.149 C353.743,4.649 353.368,6.274 352.243,7.274 ZM312.493,8.274 L325.743,21.523 L340.118,8.274 L312.493,8.274 ZM285.370,100.772 C283.245,100.772 281.620,99.147 281.620,97.022 L281.620,4.524 C281.620,2.399 283.245,0.774 285.370,0.774 C287.495,0.774 289.120,2.399 289.120,4.524 L289.120,97.022 C289.120,99.147 287.495,100.772 285.370,100.772 ZM264.370,83.647 C260.246,89.772 254.246,94.772 247.246,97.772 C242.621,99.647 237.496,100.772 232.121,100.772 C228.121,100.772 224.246,100.147 220.621,99.022 C216.871,97.897 213.496,96.272 210.371,94.147 C204.247,89.897 199.247,84.022 196.247,77.022 C194.372,72.397 193.247,67.272 193.247,61.898 L193.247,50.773 L193.247,27.648 C193.247,24.898 193.622,22.148 194.497,19.648 C195.247,17.148 196.372,14.773 197.872,12.649 C200.747,8.399 204.872,4.899 209.621,2.899 C212.871,1.524 216.371,0.774 220.121,0.774 C222.871,0.774 225.621,1.149 228.121,2.024 C230.621,2.774 232.996,3.899 235.121,5.399 C239.371,8.274 242.871,12.399 244.871,17.148 C245.996,19.898 246.746,22.773 246.871,25.898 C251.746,27.898 255.996,30.773 259.621,34.398 C263.870,38.523 267.120,43.773 269.120,49.523 C270.370,53.398 270.995,57.523 270.995,61.898 C270.995,65.898 270.495,69.772 269.245,73.397 C268.120,77.147 266.495,80.522 264.370,83.647 ZM239.496,27.648 C239.496,25.648 239.246,23.773 238.621,21.898 C237.996,20.023 237.246,18.398 236.246,16.773 C234.121,13.773 231.121,11.274 227.621,9.774 C225.371,8.774 222.746,8.274 220.121,8.274 C218.121,8.274 216.121,8.649 214.371,9.149 C212.496,9.774 210.871,10.524 209.246,11.649 C206.247,13.648 203.747,16.648 202.247,20.148 C201.247,22.398 200.747,25.023 200.747,27.648 L200.747,47.023 L220.121,47.023 C222.121,47.023 224.121,46.773 225.871,46.148 C227.746,45.648 229.371,44.773 230.996,43.773 C233.996,41.648 236.496,38.648 237.996,35.148 C238.871,33.148 239.371,30.773 239.496,28.398 C239.496,28.148 239.496,27.898 239.496,27.648 ZM259.996,47.398 C257.746,43.148 254.621,39.398 250.621,36.523 C249.246,35.523 247.871,34.648 246.246,33.773 C246.121,34.398 245.996,35.023 245.746,35.648 C244.996,38.148 243.871,40.523 242.371,42.648 C239.496,47.023 235.371,50.398 230.621,52.398 C227.371,53.773 223.871,54.523 220.121,54.523 L200.747,54.523 L200.747,61.898 C200.747,65.148 201.247,68.272 202.122,71.147 C203.122,74.147 204.372,76.897 206.122,79.397 C209.496,84.397 214.246,88.397 219.871,90.772 C223.621,92.397 227.746,93.272 232.121,93.272 C235.371,93.272 238.496,92.772 241.496,91.897 C244.496,90.897 247.246,89.647 249.746,87.897 C254.746,84.522 258.746,79.772 261.120,74.147 C262.620,70.397 263.495,66.273 263.495,61.898 C263.495,56.648 262.245,51.773 259.996,47.398 ZM175.497,98.647 L154.247,56.273 L88.498,100.147 C86.998,101.147 85.123,101.022 83.873,99.897 C82.624,98.772 82.249,96.897 82.999,95.397 L129.248,2.899 C129.873,1.524 131.248,0.774 132.623,0.774 C133.998,0.774 135.373,1.524 135.998,2.899 L182.247,95.397 C183.122,97.147 182.372,99.397 180.497,100.397 C178.747,101.272 176.497,100.522 175.497,98.647 ZM132.623,12.899 L95.998,86.022 L150.872,49.523 L132.623,12.899 ZM68.125,100.772 C66.000,100.772 64.375,99.147 64.375,97.022 L64.375,4.524 C64.375,2.399 66.000,0.774 68.125,0.774 C70.250,0.774 71.875,2.399 71.875,4.524 L71.875,97.022 C71.875,99.147 70.250,100.772 68.125,100.772 ZM49.124,42.648 C46.249,47.023 42.124,50.398 37.374,52.398 C34.124,53.773 30.624,54.523 26.874,54.523 L26.124,54.523 L53.124,94.897 C54.249,96.647 53.749,99.022 52.124,100.147 C50.374,101.272 47.999,100.772 46.874,99.147 L17.125,54.523 L7.500,54.523 L7.500,97.022 C7.500,99.147 5.875,100.772 3.750,100.772 C1.625,100.772 -0.000,99.147 -0.000,97.022 L-0.000,50.773 C-0.000,49.773 0.375,48.773 1.125,48.148 C1.750,47.398 2.750,47.023 3.750,47.023 L12.125,47.023 L0.625,29.773 C0.250,29.148 -0.000,28.398 -0.000,27.648 C-0.000,24.898 0.375,22.148 1.250,19.648 C2.000,17.148 3.125,14.773 4.625,12.649 C7.500,8.399 11.625,4.899 16.375,2.899 C19.625,1.524 23.125,0.774 26.874,0.774 C29.624,0.774 32.374,1.149 34.874,2.024 C37.374,2.774 39.749,3.899 41.874,5.399 C46.249,8.274 49.624,12.399 51.624,17.148 C52.999,20.398 53.749,23.898 53.749,27.648 C53.749,30.398 53.374,33.148 52.499,35.648 C51.749,38.148 50.624,40.523 49.124,42.648 ZM45.374,21.898 C44.874,20.023 43.999,18.398 42.999,16.773 C40.874,13.773 37.874,11.274 34.374,9.774 C32.124,8.774 29.624,8.274 26.874,8.274 C24.875,8.274 22.875,8.524 21.125,9.149 C19.250,9.774 17.625,10.524 16.000,11.649 C13.000,13.648 10.500,16.648 9.000,20.148 C8.125,22.148 7.625,24.273 7.500,26.523 L21.125,47.023 L26.874,47.023 C28.874,47.023 30.874,46.773 32.624,46.148 C34.499,45.648 36.124,44.773 37.749,43.773 C40.749,41.648 43.249,38.648 44.749,35.148 C45.749,32.898 46.249,30.398 46.249,27.648 C46.249,25.648 45.999,23.648 45.374,21.898 Z" class="cls-1" />
</svg>
